public/favicon.svg

<svg xmlns="http://www.w3.org/2000/svg" width="400" height="400"><g fill-rule="evenodd"><path d="M108.615 68.63c-9.461 1.037-16.932 4.445-21.294 9.714l-1.244 1.502.182 2.308c2.056 26.112 45.121 50.236 113.433 63.543 3.977.775 7.685 1.506 8.239 1.625l1.008.216-2.546 3.392c-6.363 8.472-16.326 19.032-27.008 28.624-32.035 28.766-68.174 74.876-74.747 95.369-16.758 52.249.625 90.764 49.773 110.284 45.028 17.884 106.394 5.774 155.57-30.699 11.612-8.612 25.49-20.984 32.16-28.671 19.522-22.494 31.872-42.464 36.027-58.258.484-1.84.829-3.294.766-3.231-.062.062-1.575 3.054-3.362 6.648-15.84 31.854-30.146 48.79-57.225 67.746-25.621 17.935-51.958 26.806-79.55 26.793-26.366-.011-40.247-3.521-51.72-13.078-10.221-8.513-17.059-24.685-16.273-38.486 1.588-27.919 9.841-55.217 23.527-77.817 1.639-2.708 3.609-6.031 4.376-7.385 10.634-18.755 27.986-34.022 48.754-42.893 9.391-4.012 18.586-6.653 32.77-9.415 14.723-2.866 26.53-7.519 30.488-12.016 3.453-3.922 4.451-11.824 2.197-17.402l-1.07-2.649-6.334-5.85c-10.321-9.532-21.673-15.395-37.974-19.612-9.511-2.46-11.415-2.624-30.486-2.624h-17.044l-5.311-3.727c-28.115-19.726-52.209-33.457-70.543-40.203-7.837-2.884-25.973-4.796-35.539-3.748m29.859 25.97c6.985 1.053 16.705 3.988 30.603 9.242 13.975 5.283 36.548 22.347 39.403 29.788.708 1.844-14.642-1.402-27.865-5.893-28.763-9.77-46.921-19.532-50.887-27.359-2.574-5.079.39-7.038 8.746-5.778" fill="#fbfbfb"/><path d="M188.615 9.421c-23.966 1.716-41.511 5.268-57.778 11.695-50.67 20.02-86.526 56.028-107.661 108.115-12.442 30.663-17.03 72.25-10.978 99.516 12.388 55.81 37.672 97.649 73.494 121.614 3.323 2.223 7.78 5.024 7.994 5.024.085 0-.737-1.697-1.827-3.77-11.929-22.702-12.979-50.109-3.03-79.129.933-2.721 1.801-5.139 1.93-5.372.145-.264-.674-2.373-2.15-5.539-23.656-50.756-20.924-95.876 8.232-135.984 1.271-1.748 2.19-3.289 2.043-3.425-.148-.137-2.207-1.709-4.576-3.494-16.773-12.641-24.404-24.597-23.754-37.214.561-10.868 5.913-16.887 20.538-23.093 19.531-8.288 45.515-5.765 70.002 6.797l1.173.602 3.251-1.527c40.387-18.967 88.248-20.942 128.248-5.294 40.034 15.662 68.463 41.94 83.777 77.439 1.377 3.193 1.448 2.852.181-.867-21.697-63.64-83.061-114.45-150.104-124.287-10.469-1.537-30.091-2.446-39.005-1.807m-55.153 84.955c.55.069 1.45.069 2 0 .55-.068.1-.124-1-.124s-1.55.056-1 .124m-35.21 217.316c0 1.1.056 1.55.124 1 .069-.55.069-1.45 0-2-.068-.55-.124-.1-.124 1m126.594 53.448c.381.074 1.004.074 1.385 0 .381-.073.069-.133-.693-.133-.761 0-1.073.06-.692.133" fill="#fff"/><path d="M185.077.321c-39.354 3.117-70.473 14.157-100.462 35.641C34.953 71.54 4.742 124.441.474 183.302c-4.478 61.745 14.923 114.945 57.517 157.719 35.383 35.532 76.82 54.837 125.61 58.519 69.344 5.233 130.878-21.861 174.632-76.891 32.537-40.923 46.64-92.13 40.517-147.111-5.573-50.033-29.866-94.703-70.255-129.18C297.444 19.851 262.361 5.036 220.462.737c-5.677-.583-29.713-.865-35.385-.416m33.846 9.815c72.379 8.203 135.969 58.409 158.801 125.379 1.267 3.719 1.196 4.06-.181.867-15.314-35.499-43.743-61.777-83.777-77.439-40-15.648-87.861-13.673-128.248 5.294l-3.251 1.527-1.173-.602c-24.487-12.562-50.471-15.085-70.002-6.797-14.625 6.206-19.977 12.225-20.538 23.093-.65 12.617 6.981 24.573 23.754 37.214 2.369 1.785 4.428 3.357 4.576 3.494.147.136-.772 1.677-2.043 3.425-29.156 40.108-31.888 85.228-8.232 135.984 1.476 3.166 2.295 5.275 2.15 5.539-.129.233-.997 2.651-1.93 5.372-9.949 29.02-8.899 56.427 3.03 79.129 1.09 2.073 1.912 3.77 1.827 3.77-.214 0-4.671-2.801-7.994-5.024-35.822-23.965-61.106-65.804-73.494-121.614-6.052-27.266-1.464-68.853 10.978-99.516C44.311 77.144 80.167 41.136 130.837 21.116c16.267-6.427 33.812-9.979 57.778-11.695 5.024-.36 24.975.111 30.308.715m-88.308 59.207c9.476 1.424 10.939 1.822 19.385 5.276 16.232 6.637 39.51 20.242 64.149 37.491l5.995 4.198h17.042c20.43 0 24.176.415 35.231 3.904 14.714 4.644 23.807 9.681 33.166 18.374 7.604 7.062 8.611 8.825 8.646 15.127.068 12.6-8.981 17.991-40.537 24.15-33.285 6.497-59.669 24.387-74.847 50.752-1.023 1.777-3.186 5.433-4.806 8.125-16.047 26.658-26.654 69.014-22.197 88.645 5.742 25.293 21.984 37.524 52.62 39.621 40.004 2.738 69.566-6.985 104.923-34.509 19.175-14.927 31.778-31.084 45.597-58.454 2.252-4.461 4.095-8.015 4.095-7.897 0 3.818-6.088 18.346-11.544 27.546-14.257 24.045-34.752 46.269-58.802 63.764-14.241 10.36-28.975 18.635-43.808 24.604-40.501 16.299-81.342 17.7-113.633 3.898-47.422-20.269-63.482-58.73-46.192-110.629 1.228-3.688 2.1-5.386 6.923-13.483 15.709-26.376 40.223-55.606 67.211-80.138 11.451-10.41 20.248-19.73 26.877-28.477l2.799-3.693-3.762-.696c-28.536-5.281-63.066-15.635-79.38-23.803-24.703-12.367-38.496-26.59-39.502-40.731l-.176-2.462 1.148-1.457c6.815-8.656 23.217-12.076 43.379-9.046m.154 25.315c-4.493 1.846-.752 8.532 8 14.294 15.947 10.499 48.845 22.782 66.718 24.911 3.556.424 3.505.49 1.699-2.22-9.012-13.524-30.167-26.134-57.955-34.546-6.734-2.038-16.347-3.308-18.462-2.439" fill="#040404"/></g></svg>

<svg xmlns="http://www.w3.org/2000/svg" width="400" height="400" viewBox="0, 0, 400,400">
   <g>
      <path d="M108.615 68.630 C 99.154 69.667,91.683 73.075,87.321 78.344 L 86.077 79.846 86.259 82.154 C 88.315 108.266,131.380 132.390,199.692 145.697 C 203.669 146.472,207.377 147.203,207.931 147.322 L 208.939 147.538 206.393 150.930 C 200.030 159.402,190.067 169.962,179.385 179.554 C 147.350 208.320,111.211 254.430,104.638 274.923 C 87.880 327.172,105.263 365.687,154.411 385.207 C 199.439 403.091,260.805 390.981,309.981 354.508 C 321.593 345.896,335.471 333.524,342.141 325.837 C 361.663 303.343,374.013 283.373,378.168 267.579 C 378.652 265.739,378.997 264.285,378.934 264.348 C 378.872 264.410,377.359 267.402,375.572 270.996 C 359.732 302.850,345.426 319.786,318.347 338.742 C 292.726 356.677,266.389 365.548,238.797 365.535 C 212.431 365.524,198.550 362.014,187.077 352.457 C 176.856 343.944,170.018 327.772,170.804 313.971 C 172.392 286.052,180.645 258.754,194.331 236.154 C 195.970 233.446,197.940 230.123,198.707 228.769 C 209.341 210.014,226.693 194.747,247.461 185.876 C 256.852 181.864,266.047 179.223,280.231 176.461 C 294.954 173.595,306.761 168.942,310.719 164.445 C 314.172 160.523,315.170 152.621,312.916 147.043 L 311.846 144.394 305.512 138.544 C 295.191 129.012,283.839 123.149,267.538 118.932 C 258.027 116.472,256.123 116.308,237.052 116.308 L 220.008 116.308 214.697 112.581 C 186.582 92.855,162.488 79.124,144.154 72.378 C 136.317 69.494,118.181 67.582,108.615 68.630 M138.474 94.600 C 145.459 95.653,155.179 98.588,169.077 103.842 C 183.052 109.125,205.625 126.189,208.480 133.630 C 209.188 135.474,193.838 132.228,180.615 127.737 C 151.852 117.967,133.694 108.205,129.728 100.378 C 127.154 95.299,130.118 93.340,138.474 94.600 " stroke="none" fill="#fbfbfb" fill-rule="evenodd"></path>
      <path d="M188.615 9.421 C 164.649 11.137,147.104 14.689,130.837 21.116 C 80.167 41.136,44.311 77.144,23.176 129.231 C 10.734 159.894,6.146 201.481,12.198 228.747 C 24.586 284.557,49.870 326.396,85.692 350.361 C 89.015 352.584,93.472 355.385,93.686 355.385 C 93.771 355.385,92.949 353.688,91.859 351.615 C 79.930 328.913,78.880 301.506,88.829 272.486 C 89.762 269.765,90.630 267.347,90.759 267.114 C 90.904 266.850,90.085 264.741,88.609 261.575 C 64.953 210.819,67.685 165.699,96.841 125.591 C 98.112 123.843,99.031 122.302,98.884 122.166 C 98.736 122.029,96.677 120.457,94.308 118.672 C 77.535 106.031,69.904 94.075,70.554 81.458 C 71.115 70.590,76.467 64.571,91.092 58.365 C 110.623 50.077,136.607 52.600,161.094 65.162 L 162.267 65.764 165.518 64.237 C 205.905 45.270,253.766 43.295,293.766 58.943 C 333.800 74.605,362.229 100.883,377.543 136.382 C 378.920 139.575,378.991 139.234,377.724 135.515 C 356.027 71.875,294.663 21.065,227.620 11.228 C 217.151 9.691,197.529 8.782,188.615 9.421 M133.462 94.376 C 134.012 94.445,134.912 94.445,135.462 94.376 C 136.012 94.308,135.562 94.252,134.462 94.252 C 133.362 94.252,132.912 94.308,133.462 94.376 M98.252 311.692 C 98.252 312.792,98.308 313.242,98.376 312.692 C 98.445 312.142,98.445 311.242,98.376 310.692 C 98.308 310.142,98.252 310.592,98.252 311.692 M224.846 365.140 C 225.227 365.214,225.850 365.214,226.231 365.140 C 226.612 365.067,226.300 365.007,225.538 365.007 C 224.777 365.007,224.465 365.067,224.846 365.140 " stroke="none" fill="#fff" fill-rule="evenodd"></path>
      <path d="M185.077 0.321 C 145.723 3.438,114.604 14.478,84.615 35.962 C 34.953 71.540,4.742 124.441,0.474 183.302 C -4.004 245.047,15.397 298.247,57.991 341.021 C 93.374 376.553,134.811 395.858,183.601 399.540 C 252.945 404.773,314.479 377.679,358.233 322.649 C 390.770 281.726,404.873 230.519,398.750 175.538 C 393.177 125.505,368.884 80.835,328.495 46.358 C 297.444 19.851,262.361 5.036,220.462 0.737 C 214.785 0.154,190.749 -0.128,185.077 0.321 M218.923 10.136 C 291.302 18.339,354.892 68.545,377.724 135.515 C 378.991 139.234,378.920 139.575,377.543 136.382 C 362.229 100.883,333.800 74.605,293.766 58.943 C 253.766 43.295,205.905 45.270,165.518 64.237 L 162.267 65.764 161.094 65.162 C 136.607 52.600,110.623 50.077,91.092 58.365 C 76.467 64.571,71.115 70.590,70.554 81.458 C 69.904 94.075,77.535 106.031,94.308 118.672 C 96.677 120.457,98.736 122.029,98.884 122.166 C 99.031 122.302,98.112 123.843,96.841 125.591 C 67.685 165.699,64.953 210.819,88.609 261.575 C 90.085 264.741,90.904 266.850,90.759 267.114 C 90.630 267.347,89.762 269.765,88.829 272.486 C 78.880 301.506,79.930 328.913,91.859 351.615 C 92.949 353.688,93.771 355.385,93.686 355.385 C 93.472 355.385,89.015 352.584,85.692 350.361 C 49.870 326.396,24.586 284.557,12.198 228.747 C 6.146 201.481,10.734 159.894,23.176 129.231 C 44.311 77.144,80.167 41.136,130.837 21.116 C 147.104 14.689,164.649 11.137,188.615 9.421 C 193.639 9.061,213.590 9.532,218.923 10.136 M130.615 69.343 C 140.091 70.767,141.554 71.165,150.000 74.619 C 166.232 81.256,189.510 94.861,214.149 112.110 L 220.144 116.308 237.186 116.308 C 257.616 116.308,261.362 116.723,272.417 120.212 C 287.131 124.856,296.224 129.893,305.583 138.586 C 313.187 145.648,314.194 147.411,314.229 153.713 C 314.297 166.313,305.248 171.704,273.692 177.863 C 240.407 184.360,214.023 202.250,198.845 228.615 C 197.822 230.392,195.659 234.048,194.039 236.740 C 177.992 263.398,167.385 305.754,171.842 325.385 C 177.584 350.678,193.826 362.909,224.462 365.006 C 264.466 367.744,294.028 358.021,329.385 330.497 C 348.560 315.570,361.163 299.413,374.982 272.043 C 377.234 267.582,379.077 264.028,379.077 264.146 C 379.077 267.964,372.989 282.492,367.533 291.692 C 353.276 315.737,332.781 337.961,308.731 355.456 C 294.490 365.816,279.756 374.091,264.923 380.060 C 224.422 396.359,183.581 397.760,151.290 383.958 C 103.868 363.689,87.808 325.228,105.098 273.329 C 106.326 269.641,107.198 267.943,112.021 259.846 C 127.730 233.470,152.244 204.240,179.232 179.708 C 190.683 169.298,199.480 159.978,206.109 151.231 L 208.908 147.538 205.146 146.842 C 176.610 141.561,142.080 131.207,125.766 123.039 C 101.063 110.672,87.270 96.449,86.264 82.308 L 86.088 79.846 87.236 78.389 C 94.051 69.733,110.453 66.313,130.615 69.343 M130.769 94.658 C 126.276 96.504,130.017 103.190,138.769 108.952 C 154.716 119.451,187.614 131.734,205.487 133.863 C 209.043 134.287,208.992 134.353,207.186 131.643 C 198.174 118.119,177.019 105.509,149.231 97.097 C 142.497 95.059,132.884 93.789,130.769 94.658 " stroke="none" fill="#040404" fill-rule="evenodd"></path>
   </g>
</svg>
